X:1
T:St. Edmund (Sullivan), 10.10.12.10
T:Arthur Seymour Sulllivan, 1872
T:St. Edmund (Sullivan), 10.10.12.10
T:Public Domain
C:Arthur Seymour Sulllivan, 1872
Z:Public Domain
%%score ( 1 2 ) ( 3 4 )
L:1/8
M:4/4
K:G
V:1 treble 
V:2 treble 
V:3 bass 
V:4 bass 
V:1
 [B,G]4 [CG]2 [DG]2 | [CG]2 [CF]2 [CA]4 | [CD]4 [CD]2 [CE]2 | [B,D]8 | [B,D]4 [B,B]2 [^CB]2 | %5
 [DB]2 [DA]2 [Ed]4 | [DA]4 [DF]2 [^CE]2 | D8 | [CA]4 [CB]2 [CA]2 | [B,A]2 [B,G]2 [B,D]4 | %10
 [Ec]4 [DB]2 [DA]2 | [DA]2 [DG]2 [B,D]4 | [DB]4 [Ee]2 [Ed]2 | [Ed]2 [Ec]2 (B2 A2) | %14
 [DG]4 [DA]2 [DF]2 | [DG]8 |] %16
V:2
 x8 | x8 | x8 | x8 | x8 | x8 | x8 | D8 | x8 | x8 | x8 | x8 | x8 | x4 E4 | x8 | x8 |] %16
V:3
 [G,,G,]4 [A,,G,]2 [B,,G,]2 | [D,A,]2 [D,A,]2 [D,F,]4 | [F,A,]4 [D,F,]2 [D,F,]2 | G,8 | %4
 [G,,G,]4 [G,,D,]2 [G,,E,]2 | [F,,D,]2 [A,,F,]2 [B,,^G,]4 | [A,,F,]4 [A,,A,]2 [A,,G,]2 | [D,F,]8 | %8
 [D,F,]4 [D,E,]2 [D,F,]2 | [G,,D,]2 [G,,D,]2 [G,,G,]4 | [D,F,]4 [E,G,]2 [F,C]2 | %11
 [G,C]2 [G,B,]2 G,4 | [F,G,]4 [E,^G,]2 [E,G,]2 | A,2 [A,,A,]2 ([B,,^G,]2 [C,A,]2) | %14
 [D,B,]4 [D,F,]2 [D,C]2 | [G,,B,]8 |] %16
V:4
 x8 | x8 | x8 | G,8 | x8 | x8 | x8 | x8 | x8 | x8 | x8 | x8 | x8 | x8 | x8 | x8 |] %16

